X: 3
T: The Castle
R: jig
M: 6/8
L: 1/8
K: Ador
cBA BAG | EGA GAB | c3 dcd | eab age |
cBA BAG | EGA GAB | cde dBG | BAG A2B :|
|: c3 dcd | ega ged | eaa aga | bag a2g|
a3 c'ag | ac'a ged| cde dBG | BAG A3 ||

